layout/left-panel/icons/arrow-left-r.svg

<svg fill="none" height="24" viewBox="0 0 24 24" width="24" xmlns="http://www.w3.org/2000/svg"><g fill="#f4f4f7"><path d="m11.9481 14.8285-1.4142 1.4142-4.24264-4.2427 4.24264-4.2426 1.4142 1.41421-1.8284 1.82839h7.5371v2h-7.5371z"/><path clip-rule="evenodd" d="m23 19c0 2.2091-1.7909 4-4 4h-14c-2.20914 0-4-1.7909-4-4v-14c0-2.20914 1.79086-4 4-4h14c2.2091 0 4 1.79086 4 4zm-4 2h-14c-1.10457 0-2-.8954-2-2v-14c0-1.10457.89543-2 2-2h14c1.1046 0 2 .89543 2 2v14c0 1.1046-.8954 2-2 2z" fill-rule="evenodd"/></g></svg>

<svg
  width="24"
  height="24"
  viewBox="0 0 24 24"
  fill="none"
  xmlns="http://www.w3.org/2000/svg"
>
  <path
    d="M11.9481 14.8285L10.5339 16.2427L6.29126 12L10.5339 7.7574L11.9481 9.17161L10.1197 11H17.6568V13H10.1197L11.9481 14.8285Z"
    fill="#f4f4f7"
  />
  <path
    fill-rule="evenodd"
    clip-rule="evenodd"
    d="M23 19C23 21.2091 21.2091 23 19 23H5C2.79086 23 1 21.2091 1 19V5C1 2.79086 2.79086 1 5 1H19C21.2091 1 23 2.79086 23 5V19ZM19 21H5C3.89543 21 3 20.1046 3 19V5C3 3.89543 3.89543 3 5 3H19C20.1046 3 21 3.89543 21 5V19C21 20.1046 20.1046 21 19 21Z"
    fill="#f4f4f7"
  />
</svg>
